X:0876
M:3/4
L:1/8
Q:1/4=72
K:D
=c|B>A {G}F3  d|{B}AG/F/          E2 E=c|Bd    A2 f2|  (a/f/e/f/)  d3
=c|B>A    F3  d|  (B/A/G/F/)      E3  =c|Bd {B}A2 FD|  (E/D/E/F/)  D3|]

